images/reviews-button.svg

<svg width="10" height="17" viewBox="0 0 10 17" fill="none" xmlns="http://www.w3.org/2000/svg">
<path fill-rule="evenodd" clip-rule="evenodd" d="M8.57725 9.0615C8.86325 8.7775 9.02125 8.4025 9.02125 8.0005C9.02125 7.5995 8.86325 7.2225 8.57725 6.9405L1.72825 0.2925C1.33225 -0.0975 0.69225 -0.0975 0.29625 0.2925C-0.09875 0.6835 -0.09875 1.3165 0.29625 1.7065L6.78825 8.0005L0.29625 14.2945C-0.09875 14.6845 -0.09875 15.3175 0.29625 15.7085C0.69225 16.0995 1.33225 16.0995 1.72825 15.7085L8.57725 9.0615Z" fill="#0C2146"/>
</svg>

<svg xmlns="http://www.w3.org/2000/svg" width="10" height="17" fill="none"><path fill="#0C2146" fill-rule="evenodd" d="M8.577 9.062c.286-.284.444-.66.444-1.061a1.48 1.48 0 0 0-.444-1.06L1.728.293a1.023 1.023 0 0 0-1.432 0 .992.992 0 0 0 0 1.413l6.492 6.295-6.492 6.293a.992.992 0 0 0 0 1.415 1.02 1.02 0 0 0 1.432 0l6.85-6.647Z" clip-rule="evenodd"/></svg>
